Suru++-Ubuntu/apps/scalable/yandex-browser.svg

<svg width="256" height="256" version="1.1" viewBox="0 0 67.73 67.73" xmlns="http://www.w3.org/2000/svg" xmlns:xlink="http://www.w3.org/1999/xlink">
 <defs>
  <linearGradient id="linearGradient1108-7" x1="296" x2="296" y1="-212" y2="236" gradientUnits="userSpaceOnUse">
   <stop style="stop-color:#ffffff" offset="0"/>
   <stop style="stop-color:#ffffff;stop-opacity:.09803922" offset=".125"/>
   <stop style="stop-color:#000000;stop-opacity:.09803922" offset=".925"/>
   <stop style="stop-color:#000000;stop-opacity:.49803922" offset="1"/>
  </linearGradient>
  <clipPath id="clipPath1082-3-69">
   <path d="M 361.9375,-212 C 507.2348,-212 528,-191.28677 528,-46.125 V 70.125 C 528,215.28618 507.2348,236 361.9375,236 H 214.0625 C 68.7652,236 48,215.28618 48,70.125 V -46.125 C 48,-191.28677 68.7652,-212 214.0625,-212 Z" style="fill:#8c59d9"/>
  </clipPath>
  <filter id="filter958" x="-.02" y="-.03" width="1.046" height="1.05" style="color-interpolation-filters:sRGB">
   <feGaussianBlur stdDeviation="2.32"/>
  </filter>
  <filter id="filter4569" x="-.01" y="-.01" width="1.023" height="1.025" style="color-interpolation-filters:sRGB">
   <feGaussianBlur stdDeviation="1.16"/>
  </filter>
  <filter id="filter1597" x="-.05" y="-.04" width="1.109" height="1.086" style="color-interpolation-filters:sRGB">
   <feGaussianBlur stdDeviation="8.324"/>
  </filter>
 </defs>
 <g transform="translate(0,-229.26666)">
  <path transform="matrix(.26970778 0 0 .26970778 -7.1289177 220.56049)" d="m188.96876 43.999995c72.64865 0 83.03125 10.356615 83.03125 82.937505v58.125c0 72.58059-10.3826 82.9375-83.03125 82.9375h-73.9375c-72.648654 0-83.031254-10.35691-83.031254-82.9375v-58.125c0-72.58089 10.3826-82.937505 83.031254-82.937505z" style="filter:url(#filter4569);opacity:.1"/>
  <path transform="matrix(.26970778 0 0 .26970778 -7.1289177 220.56049)" d="m188.96876 45.999995c72.64865 0 83.03125 10.356615 83.03125 82.937505v58.125c0 72.58059-10.3826 82.9375-83.03125 82.9375h-73.9375c-72.648654 0-83.031254-10.35691-83.031254-82.9375v-58.125c0-72.58089 10.3826-82.937505 83.031254-82.937505z" style="filter:url(#filter958);opacity:.2"/>
  <path d="m43.837426 233.12083c19.593907 0 22.394175 2.79326 22.394175 22.36889v15.67677c0 19.57555-2.800268 22.36888-22.394175 22.36888h-19.94152c-19.593906 0-22.394174-2.79333-22.394174-22.36888v-15.67677c0-19.57563 2.8002682-22.36889 22.394174-22.36889z" style="fill:#d0d0d0"/>
  <path d="m66.198941 251.55423-54.3477 40.48936c3.059042 0.61146 6.992009 0.79858 12.044665 0.79858h19.94152c19.593907 0 22.394175-2.79333 22.394175-22.36888v-15.67677c0-1.13848-0.01098-2.21458-0.03266-3.24229z" style="fill:#ffffff;opacity:.1"/>
  <g transform="matrix(.12974173 0 0 .12974173 3.8344818 227.85345)" style="enable-background:new;fill:#24442b;filter:url(#filter1597);opacity:.3">
   <path transform="matrix(2.0393079,0,0,2.0393079,-29.55473,10.892486)" d="m76.388672 14.902344c-3.604848 0.095554-7.721747 0.072772-10.972656 0.263672-3.688381 0.216589-7.155044 0.499672-10.41211 0.863281s-6.304673 0.807305-9.15625 1.34375c-2.843838 0.534989-5.490836 1.162001-7.957031 1.894531l72.167965 125.70117v97.9375h35.59766v-98.22266l72.42773-125.42187c-2.45949-0.729529-5.09686-1.355387-7.93164-1.888672-2.85157-0.536445-5.89918-0.980141-9.15625-1.34375-3.25706-0.363609-6.72373-0.646692-10.41211-0.863281-3.2509-0.1909-7.3678-0.168118-10.97265-0.263672l-51.61133 89.912106-51.611328-89.912106z" style="fill:#24442b"/>
  </g>
  <g transform="matrix(.12974173 0 0 .12974173 3.8344818 227.85345)" style="enable-background:new;fill:#f22c2c">
   <path transform="matrix(2.0393079,0,0,2.0393079,-29.55473,10.892486)" d="m76.388672 14.902344c-3.604848 0.095554-7.721747 0.072772-10.972656 0.263672-3.688381 0.216589-7.155044 0.499672-10.41211 0.863281s-6.304673 0.807305-9.15625 1.34375c-2.843838 0.534989-5.490836 1.162001-7.957031 1.894531l72.167965 125.70117v97.9375h35.59766v-98.22266l72.42773-125.42187c-2.45949-0.729529-5.09686-1.355387-7.93164-1.888672-2.85157-0.536445-5.89918-0.980141-9.15625-1.34375-3.25706-0.363609-6.72373-0.646692-10.41211-0.863281-3.2509-0.1909-7.3678-0.168118-10.97265-0.263672l-51.61133 89.912106-51.611328-89.912106z" style="fill:#f22c2c"/>
  </g>
  <path transform="matrix(.13485389 0 0 .13485389 -4.9712555 261.67801)" d="M 361.9375,-212 C 507.2348,-212 528,-191.28677 528,-46.125 V 70.125 C 528,215.28618 507.2348,236 361.9375,236 H 214.0625 C 68.7652,236 48,215.28618 48,70.125 V -46.125 C 48,-191.28677 68.7652,-212 214.0625,-212 Z" clip-path="url(#clipPath1082-3-69)" style="fill:none;opacity:.6;stroke-linecap:round;stroke-linejoin:round;stroke-width:8;stroke:url(#linearGradient1108-7)"/>
 </g>
</svg>

<svg xmlns="http://www.w3.org/2000/svg" xmlns:xlink="http://www.w3.org/1999/xlink" width="256" height="256" version="1.1" viewBox="0 0 67.73 67.73">
 <defs>
  <linearGradient id="linearGradient1108-7" x1="296" x2="296" y1="-212" y2="236" gradientUnits="userSpaceOnUse" xlink:href="#linearGradient1013"/>
  <linearGradient id="linearGradient1013">
   <stop offset="0" style="stop-color:#ffffff"/>
   <stop style="stop-color:#ffffff;stop-opacity:0.09803922" offset=".125"/>
   <stop style="stop-color:#000000;stop-opacity:0.09803922" offset=".925"/>
   <stop offset="1" style="stop-color:#000000;stop-opacity:0.49803922"/>
  </linearGradient>
  <clipPath id="clipPath1082-3-69" clipPathUnits="userSpaceOnUse">
   <path d="M 361.9375,-212 C 507.2348,-212 528,-191.28677 528,-46.125 V 70.125 C 528,215.28618 507.2348,236 361.9375,236 H 214.0625 C 68.7652,236 48,215.28618 48,70.125 V -46.125 C 48,-191.28677 68.7652,-212 214.0625,-212 Z" style="fill:#8c59d9"/>
  </clipPath>
  <filter style="color-interpolation-filters:sRGB" id="filter958" width="1.046" height="1.05" x="-.02" y="-.03">
   <feGaussianBlur stdDeviation="2.32"/>
  </filter>
  <filter style="color-interpolation-filters:sRGB" id="filter4569" width="1.023" height="1.025" x="-.01" y="-.01">
   <feGaussianBlur stdDeviation="1.16"/>
  </filter>
  <filter style="color-interpolation-filters:sRGB" id="filter1597" width="1.109" height="1.086" x="-.05" y="-.04">
   <feGaussianBlur stdDeviation="8.324"/>
  </filter>
 </defs>
 <g transform="translate(0,-229.26666)">
  <path d="m 188.96876,43.999995 c 72.64865,0 83.03125,10.356615 83.03125,82.937505 v 58.125 c 0,72.58059 -10.3826,82.9375 -83.03125,82.9375 h -73.9375 C 42.382606,268 32.000006,257.64309 32.000006,185.0625 v -58.125 c 0,-72.58089 10.3826,-82.937505 83.031254,-82.937505 z" transform="matrix(0.26970778,0,0,0.26970778,-7.1289177,220.56049)" style="opacity:0.1;filter:url(#filter4569)"/>
  <path style="opacity:0.2;filter:url(#filter958)" d="m 188.96876,45.999995 c 72.64865,0 83.03125,10.356615 83.03125,82.937505 v 58.125 c 0,72.58059 -10.3826,82.9375 -83.03125,82.9375 h -73.9375 C 42.382606,270 32.000006,259.64309 32.000006,187.0625 v -58.125 c 0,-72.58089 10.3826,-82.937505 83.031254,-82.937505 z" transform="matrix(0.26970778,0,0,0.26970778,-7.1289177,220.56049)"/>
  <path style="fill:#d0d0d0" d="m 43.837426,233.12083 c 19.593907,0 22.394175,2.79326 22.394175,22.36889 v 15.67677 c 0,19.57555 -2.800268,22.36888 -22.394175,22.36888 h -19.94152 c -19.5939063,0 -22.3941745,-2.79333 -22.3941745,-22.36888 v -15.67677 c 0,-19.57563 2.8002682,-22.36889 22.3941745,-22.36889 z"/>
  <path style="opacity:0.1;fill:#ffffff" d="m 66.198941,251.55423 -54.3477,40.48936 c 3.059042,0.61146 6.992009,0.79858 12.044665,0.79858 h 19.94152 c 19.593907,0 22.394175,-2.79333 22.394175,-22.36888 v -15.67677 c 0,-1.13848 -0.01098,-2.21458 -0.03266,-3.24229 z"/>
  <g transform="matrix(0.12974173,0,0,0.12974173,3.8344818,227.85345)" style="enable-background:new;fill:#24442b;filter:url(#filter1597);opacity:0.3">
   <path d="M 76.388672 14.902344 C 72.783824 14.997898 68.666925 14.975116 65.416016 15.166016 C 61.727635 15.382605 58.260972 15.665688 55.003906 16.029297 C 51.74684 16.392906 48.699233 16.836602 45.847656 17.373047 C 43.003818 17.908036 40.35682 18.535048 37.890625 19.267578 L 110.05859 144.96875 L 110.05859 242.90625 L 145.65625 242.90625 L 145.65625 144.68359 L 218.08398 19.261719 C 215.62449 18.53219 212.98712 17.906332 210.15234 17.373047 C 207.30077 16.836602 204.25316 16.392906 200.99609 16.029297 C 197.73903 15.665688 194.27236 15.382605 190.58398 15.166016 C 187.33308 14.975116 183.21618 14.997898 179.61133 14.902344 L 128 104.81445 L 76.388672 14.902344 z" transform="matrix(2.0393079,0,0,2.0393079,-29.55473,10.892486)" style="fill:#24442b"/>
  </g>
  <g style="enable-background:new;fill:#f22c2c" transform="matrix(0.12974173,0,0,0.12974173,3.8344818,227.85345)">
   <path style="fill:#f22c2c" d="M 76.388672 14.902344 C 72.783824 14.997898 68.666925 14.975116 65.416016 15.166016 C 61.727635 15.382605 58.260972 15.665688 55.003906 16.029297 C 51.74684 16.392906 48.699233 16.836602 45.847656 17.373047 C 43.003818 17.908036 40.35682 18.535048 37.890625 19.267578 L 110.05859 144.96875 L 110.05859 242.90625 L 145.65625 242.90625 L 145.65625 144.68359 L 218.08398 19.261719 C 215.62449 18.53219 212.98712 17.906332 210.15234 17.373047 C 207.30077 16.836602 204.25316 16.392906 200.99609 16.029297 C 197.73903 15.665688 194.27236 15.382605 190.58398 15.166016 C 187.33308 14.975116 183.21618 14.997898 179.61133 14.902344 L 128 104.81445 L 76.388672 14.902344 z" transform="matrix(2.0393079,0,0,2.0393079,-29.55473,10.892486)"/>
  </g>
  <path d="M 361.9375,-212 C 507.2348,-212 528,-191.28677 528,-46.125 V 70.125 C 528,215.28618 507.2348,236 361.9375,236 H 214.0625 C 68.7652,236 48,215.28618 48,70.125 V -46.125 C 48,-191.28677 68.7652,-212 214.0625,-212 Z" clip-path="url(#clipPath1082-3-69)" transform="matrix(0.13485389,0,0,0.13485389,-4.9712555,261.67801)" style="opacity:0.6;fill:none;stroke:url(#linearGradient1108-7);stroke-width:8;stroke-linecap:round;stroke-linejoin:round"/>
 </g>
</svg>
